X:641
T:Ceilidh Band Reel
R:Reel
M:4/4
L:1/8
S:Cambridge University Ceilidh Band
K:Dmaj
P:A
A2|:"D"!>!D2!>!D2 FEDF|"D"!>!A2!>!A2 BAFA|"D"!>!d2!>!d2 fede|"A"f2e2 e2f2| 
"D"!>!D2!>!D2 FEDE|"D"!>!A2!>!A2 BAFA|"D"d2f2 "A7"efga|[1"D"f2d2  (d2a2):|[2"D"f2d2 d2>e2|
P:B
|:"D"f2f2 defe|"A"e2A2 A2>^A2|"G"B2B2 GABA|"D"A2D2 D2>F2|
|"Em"G2G2 EFGE|"D"F2A2 d2A2|"G"BAGF "A"EFGA|[1"D"F2D2 D2e2:|[2"D"F2D2 D2|]